X:1
T:Title
%%score { ( 1 3 5 ) | ( 2 4 ) }
L:1/8
M:4/4
K:Bb
V:1 treble nm="Grand Piano"
V:3 treble 
V:5 treble 
V:2 bass 
V:4 bass 
V:1
 z4 z2[Q:1/4=112] [DF]2 | [Fd]2 [Ec]2 [DB]3 [Fd] | c2 B2 G3 G | [DF]2 [FB]2 [EA]2 [DB]2 | c6 F2 | %5
 [Fd]2 [Ec]2 [DB]3 [Fd] | c2 B2 G3 G | F2 B>B B>A G>A |[M:3/4] [DB]6 | %9
[M:12/8] [DF]3 [DB]3 [DF]3 [Fd]3- | [Fd]2 [Fc] [GB]2 [^FA] [GB]2 [EG] [DF]3- | %11
 [DF][B,D][DB] A2 A A2 B c3- | cGA [EG]3 [DF]6 | z3 [Ae]6 z3 | cBc [Fd]3- [Fd]6 | %15
 z3 [^Fd]6- [Fd] z z | z3 [GB]3- [GB]6 | [GB][FA]G F3 A6 | [EA][EG][CE] [B,D]3 [DB]6 | %19
 [DB][DB][DB] c2 c AGF B2 B | z3 c3- c6 | z3 [Fd]3 [DB]6 | z3 [Ae]3 [Ac]6 | %23
 cde d2 d [DB][Ec][Fd] [Ec]2 [EGc] |[M:9/8] z3 B6- | B3 z3 z3 |] %26
V:2
 z4 z2 [B,,B,]2 | [B,,B,]2 [B,,F,]2 [B,,F,]3 [B,,F,] | [E,G,E]2 [E,G,E]2 [E,B,E]3 [E,B,E] | %3
 [B,,B,]2 [D,B,]2 [C,F,]2 [B,,B,]2 | [F,A,F]6 [F,A,]2 | [B,,B,]2 [B,,F,]2 [B,,F,]3 [B,,B,] | %6
 [E,G,E]2 [E,G,E]2 [E,B,E]3 [E,B,E] | [F,B,D]2 [F,DF]>[F,DF] [F,CE]>[F,CE] [F,CE]>[F,CE] | %8
[M:3/4] [B,,B,]6 |[M:12/8] [B,,B,]3 [B,,F,]3 [B,,B,]3 [B,,B,]3- | %10
 [B,,B,]2 [D,B,] [E,B,]2 [E,B,] [E,B,]2 [E,B,] [B,,B,]3- | %11
 [B,,B,][B,,F,][B,,F,] [F,C]2 [F,C] [F,C]2 [F,B,D] [F,A,E]3- | %12
 [F,A,E][F,B,E][F,CE] [B,,B,]3 [B,,B,]6 | z6 z3[K:treble] [A,C]3 | %14
 FF[K:bass][F,A,F] B,B,B, B,B,B, B,3 | [B,,B,]2 [B,,B,] [D,A,]D,D, D,D,D, z[K:treble] ^FF | %16
 .[D,D]3 z3 z6 | [E,G,][E,A,][E,B,E] [F,A,E]3 [F,CE]6 | [F,,F,][F,,F,][F,,F,] [B,,F,]3 [B,,F,]6 | %19
 [B,,F,][B,,F,][B,,F,] [F,A,E]2 [F,A,E] [F,CE][F,B,E][F,A,E] [G,B,D]2 [G,B,D] | %20
 [C,B,]2 [C,B,] [F,A,]3 [G,B,]2 G, [A,C]3 | z3 [B,,B,]B,,B,, [B,,F,]3 B,,3 | z3 [F,C]F,F, F,3 F,3 | %23
 [F,A,F][F,B,F][F,CF] [B,F]2 [B,F][K:bass] [B,,B,][B,,B,][B,,B,] [E,G,]2 E, | %24
[M:9/8] F,2 F, z3 G,2 G, | F,3 z3 z3 |] %26
V:3
 x8 | x8 | x8 | x8 | x8 | x8 | x8 | x8 |[M:3/4] x6 |[M:12/8] x12 | x12 | x12 | x12 | %13
 F2 F z CC CCC edc | x12 | [Fd]2 [Fd] z A,A, A,A,A, z AA | [^FA]G[DFA] DDD DDD D3 | x12 | x12 | %19
 x12 | [=Ec]2 [Ed] F3 z2 B, _E3 | FFF z B,B, z3 B,3 | FFF z CC E3 E3 | x12 | %24
[M:9/8] [DFB]2 [CEA] [B,D]3 E2 E | D3 z3 z3 |] %26
V:4
 x8 | x8 | x8 | x8 | x8 | x8 | x8 | x8 |[M:3/4] x6 |[M:12/8] x12 | x12 | x12 | x12 | %13
 F,2 F, [F,C]F,F, F,F,F,[K:treble] FFF | .[F,A,]3[K:bass] z3 z6 | z6 z3 D,3[K:treble] | %16
 z =ED, G,G,G, G,G,G, G,3 | x12 | x12 | x12 | x12 | x12 | x12 | x6[K:bass] x6 |[M:9/8] z3 B,,6- | %25
 B,,3 z3 z3 |] %26
V:5
 x8 | x8 | x8 | x8 | x8 | x8 | x8 | x8 |[M:3/4] x6 |[M:12/8] x12 | x12 | x12 | x12 | x12 | x12 | %15
 z6 z3 A,3 | x12 | x12 | x12 | x12 | z6 =E3 z3 | x12 | x12 | x12 |[M:9/8] x9 | x9 |] %26

